icons/linear-new-textedit-office-table.svg

<svg xmlns="http://www.w3.org/2000/svg" viewBox="0 0 32 32"><path fill="currentColor" d="M27 4a1 1 0 0 1 1 1v22a1 1 0 0 1-1 1H5a1 1 0 0 1-1-1V5a1 1 0 0 1 1-1zM11 21H6v5h5zm8 0h-6v5h6zm7 0h-5v5h5zm-15-7H6v5h5zm8 0h-6v5h6zm7 0h-5v5h5zM11 7H6v5h5zm8 0h-6v5h6zm7 0h-5v5h5z"/></svg>

<svg xmlns="http://www.w3.org/2000/svg" width="32px" height="32px" viewBox="0 0 32 32" version="1.1">
    <title>linear-new-textedit-office-table</title>
    <g id="linear-new-textedit-office-table" stroke-width="1" fill-rule="evenodd">
        <path d="M27,4 C27.5522847,4 28,4.44771525 28,5 L28,27 C28,27.5522847 27.5522847,28 27,28 L5,28 C4.44771525,28 4,27.5522847 4,27 L4,5 C4,4.44771525 4.44771525,4 5,4 L27,4 Z M11,21 L6,21 L6,26 L11,26 L11,21 Z M19,21 L13,21 L13,26 L19,26 L19,21 Z M26,21 L21,21 L21,26 L26,26 L26,21 Z M11,14 L6,14 L6,19 L11,19 L11,14 Z M19,14 L13,14 L13,19 L19,19 L19,14 Z M26,14 L21,14 L21,19 L26,19 L26,14 Z M11,7 L6,7 L6,12 L11,12 L11,7 Z M19,7 L13,7 L13,12 L19,12 L19,7 Z M26,7 L21,7 L21,12 L26,12 L26,7 Z" id="&#24418;&#29366;" fill-rule="nonzero" />
    </g>
</svg>
